src/icons/io.github.kolunmi.Bazaar.gitlab.svg

<svg width="128" height="128" viewBox="0 0 128 128" fill="none" xmlns="http://www.w3.org/2000/svg">
<path d="M100 11.9999H28C19.1634 11.9999 12 19.1633 12 27.9999V100C12 108.837 19.1634 116 28 116H100C108.837 116 116 108.837 116 100V27.9999C116 19.1633 108.837 11.9999 100 11.9999Z" fill="#F6F5F4"/>
<path d="M104.405 55.6105L104.29 55.3108L92.9099 25.6185C92.6825 25.0368 92.2735 24.5468 91.7412 24.2083C91.2106 23.8681 90.5883 23.7077 89.9572 23.7412C89.3297 23.7747 88.7268 24.0038 88.235 24.3952C87.7467 24.79 87.3942 25.3242 87.2285 25.927L79.5445 49.4443H48.4562L40.7722 25.927C40.6065 25.3242 40.254 24.7901 39.7657 24.3952C39.2738 24.0038 38.671 23.7747 38.0434 23.7412C37.4124 23.7077 36.7901 23.8681 36.2595 24.2083C35.7271 24.5468 35.3182 25.0368 35.0908 25.6185L23.7103 55.3126L23.5957 55.6105C20.2235 64.4067 23.0968 74.3506 30.6063 80.0302C30.6203 80.0391 30.6327 80.0496 30.6468 80.0602L30.7473 80.136L48.0824 93.1136L56.6566 99.6041L61.8745 103.549C63.1313 104.501 64.8694 104.501 66.1263 103.549L71.3441 99.6041L79.9165 93.1136L97.3539 80.0602C97.3698 80.0479 97.3839 80.0373 97.3997 80.0249C104.904 74.3453 107.775 64.405 104.405 55.6105Z" fill="#E24329"/>
<path d="M104.405 55.6105L104.29 55.3108C98.6442 56.4707 93.444 58.8593 88.9913 62.1909C88.919 62.2438 75.4602 72.4221 64.0003 81.0861C72.5093 87.5203 79.9165 93.1136 79.9165 93.1136L97.3539 80.0602C97.3697 80.0479 97.3839 80.0373 97.3997 80.0249C104.904 74.3453 107.775 64.405 104.405 55.6105Z" fill="#FC6D26"/>
<path d="M48.0824 93.1136L56.6566 99.6041L61.8744 103.549C63.1313 104.501 64.8694 104.501 66.1262 103.549L71.344 99.6041L79.9165 93.1136C79.9165 93.1136 72.5093 87.5203 64.0003 81.0861C55.4896 87.5203 48.0824 93.1136 48.0824 93.1136Z" fill="#FCA326"/>
<path d="M39.0076 62.1909C34.5566 58.861 29.3582 56.4707 23.7103 55.3126L23.5957 55.6105C20.2235 64.4067 23.0968 74.3506 30.6062 80.0302C30.6203 80.039 30.6327 80.0496 30.6468 80.0602L30.7473 80.136L48.0824 93.1136C48.0824 93.1136 55.4896 87.5203 64.0003 81.0861C52.5405 72.4221 39.0799 62.2438 39.0076 62.1909Z" fill="#FC6D26"/>
</svg>

<svg xmlns="http://www.w3.org/2000/svg" width="128" height="128" fill="none" viewBox="0 0 128 128"><path fill="#f6f5f4" d="M100 12H28c-8.837 0-16 7.163-16 16v72c0 8.837 7.163 16 16 16h72c8.837 0 16-7.163 16-16V28c0-8.837-7.163-16-16-16"/><path fill="#e24329" d="m104.405 55.61-.115-.3-11.38-29.69a2.94 2.94 0 0 0-1.169-1.41 3.03 3.03 0 0 0-3.506.187 3 3 0 0 0-1.007 1.531l-7.683 23.517H48.456l-7.684-23.517a3 3 0 0 0-1.006-1.532 3.03 3.03 0 0 0-3.506-.187 2.94 2.94 0 0 0-1.17 1.41L23.71 55.314l-.114.297c-3.372 8.797-.5 18.74 7.01 24.42l.04.03.101.076 17.335 12.978 8.575 6.49 5.218 3.945a3.52 3.52 0 0 0 4.251 0l5.218-3.945 8.573-6.49L97.354 80.06l.046-.035c7.504-5.68 10.375-15.62 7.005-24.415"/><path fill="#fc6d26" d="m104.405 55.61-.115-.3a38.4 38.4 0 0 0-15.299 6.88c-.072.054-13.53 10.232-24.99 18.896 8.508 6.434 15.915 12.028 15.915 12.028L97.355 80.06l.046-.035c7.504-5.68 10.375-15.62 7.005-24.415"/><path fill="#fca326" d="m48.082 93.114 8.575 6.49 5.217 3.945a3.52 3.52 0 0 0 4.252 0l5.218-3.945 8.573-6.49S72.509 87.52 64 81.086c-8.51 6.434-15.918 12.028-15.918 12.028"/><path fill="#fc6d26" d="M39.008 62.19a38.4 38.4 0 0 0-15.298-6.877l-.114.297c-3.372 8.797-.5 18.74 7.01 24.42l.04.03.101.076 17.335 12.978S55.49 87.52 64 81.086c-11.46-8.664-24.92-18.842-24.992-18.895"/></svg>
